priv/static/hex.svg

<svg width="18" height="18" xmlns="http://www.w3.org/2000/svg" fill="none">

 <g>
  <title>Layer 1</title>
  <path transform="rotate(90 9 9.00002)" id="svg_1" stroke-linejoin="round" stroke-linecap="round" stroke-width="1.66667" stroke="#FFAFF3" d="m15.75,12l0,-6c-0.0003,-0.26304 -0.0697,-0.52139 -0.2013,-0.74913c-0.1317,-0.22773 -0.3209,-0.41685 -0.5487,-0.54837l-5.25,-3c-0.22803,-0.13165 -0.4867,-0.20096 -0.75,-0.20096c-0.2633,0 -0.52197,0.06931 -0.75,0.20096l-5.25,3c-0.2278,0.13152 -0.41701,0.32064 -0.54865,0.54837c-0.13164,0.22774 -0.20108,0.48609 -0.20135,0.74913l0,6c0.00027,0.263 0.06971,0.5214 0.20135,0.7491c0.13164,0.2278 0.32085,0.4169 0.54865,0.5484l5.25,3c0.22803,0.1317 0.4867,0.201 0.75,0.201c0.2633,0 0.52197,-0.0693 0.75,-0.201l5.25,-3c0.2278,-0.1315 0.417,-0.3206 0.5487,-0.5484c0.1316,-0.2277 0.201,-0.4861 0.2013,-0.7491z"/>
 </g>
</svg>

<svg width="18" height="18" viewBox="0 0 18 18" fill="none" xmlns="http://www.w3.org/2000/svg">
<path d="M15.75 12V6C15.7497 5.73696 15.6803 5.47861 15.5487 5.25087C15.417 5.02314 15.2278 4.83402 15 4.7025L9.75 1.7025C9.52197 1.57085 9.2633 1.50154 9 1.50154C8.7367 1.50154 8.47803 1.57085 8.25 1.7025L3 4.7025C2.7722 4.83402 2.58299 5.02314 2.45135 5.25087C2.31971 5.47861 2.25027 5.73696 2.25 6V12C2.25027 12.263 2.31971 12.5214 2.45135 12.7491C2.58299 12.9769 2.7722 13.166 3 13.2975L8.25 16.2975C8.47803 16.4292 8.7367 16.4985 9 16.4985C9.2633 16.4985 9.52197 16.4292 9.75 16.2975L15 13.2975C15.2278 13.166 15.417 12.9769 15.5487 12.7491C15.6803 12.5214 15.7497 12.263 15.75 12Z" stroke="#FFAFF3" stroke-width="1.66667" stroke-linecap="round" stroke-linejoin="round"/>
</svg>
